X:134
T:Green Fields of America
Z: id:dc-reel-124
M:C
L:1/8
K:G Major
B|c2ec B2dB|AGAB GEDE|GAGE DEGB|AGAB AGAB|!
c2ec B2dB|AGAB GEDE|GAGE DEGB|AGAB G3:|!
D|GABc d2ef|g3e dBGB|c2ec B2dB|AGAB GED|!
[1 E|GABc d2ef|g3e dBGB|c2ec B2dB|AGAB G3:|!
[2 f|gfgd efge|dedc BGEF|GAGE DEGB|AGAB G3|]!

